X:189
T:Lord Nelson Hornpipe. JGi.189
M:C|
L:1/8
Q:1/4=120
S:Joshua Gibbons MS,1823,Tealby,Lincs.
R:.hornpipe
O:Tealby,Lincolnshire
Z:VMP/R.Greig, 2009
K:G
Bc|dBec BGcA|GFAFG2Bd|edge edcB|BAcA GFED|
dBec BAcA|GFAF Ggec|BAcA GFAF|G2G2G2:|
|:Bc|dfge edcB|edef g2gf|edcB AGFE|D2D2D2GF|
EGAF GBdB|cege dBec|BGcA GFAF|G2G2G2:|

